modules/hawcons-stroke/icons/combination-lock.svg

<?xml version="1.0" encoding="UTF-8" standalone="no"?>
<svg width="32px" height="32px" viewBox="0 0 32 32" version="1.1" xmlns="http://www.w3.org/2000/svg" xmlns:xlink="http://www.w3.org/1999/xlink" xmlns:sketch="http://www.bohemiancoding.com/sketch/ns">
    <!-- Generator: Sketch 3.0.3 (7891) - http://www.bohemiancoding.com/sketch -->
    <title>icon 121 combination lock</title>
    <desc>Created with Sketch.</desc>
    <defs></defs>
    <g id="Page-1" stroke="none" stroke-width="1" fill="none" fill-rule="evenodd" sketch:type="MSPage">
        <g id="icon-121-combination-lock" sketch:type="MSArtboardGroup" fill="#929292">
            <path d="M26,26 L26,24 L26,24 L17,24 L17,23 L26,23 L26,21 L17,21 L17,20 L26,20 L26,20 L26,18 L26,18 L17,18 L17,17 L25.9999917,17 C25.9968572,15.894889 25.1071234,15 24.0025781,15 L8.99742191,15 C7.89427625,15 7,15.8970601 7,17.0058587 L7,26.9941413 C7,28.1019465 7.89092539,29 8.99742191,29 L24.0025781,29 C25.1037802,29 25.9968482,28.1060981 25.9999917,27 L17,27 L17,26 L26,26 L26,26 Z M9,14.0000125 L9,10.499235 C9,6.35670485 12.3578644,3 16.5,3 C20.6337072,3 24,6.35752188 24,10.499235 L24,14.0000125 C25.6591471,14.0047488 27,15.3503174 27,17.0094776 L27,26.9905224 C27,28.6633689 25.6529197,30 23.991212,30 L9.00878799,30 C7.34559019,30 6,28.652611 6,26.9905224 L6,17.0094776 C6,15.339581 7.34233349,14.0047152 9,14.0000125 L9,14.0000125 L9,14.0000125 Z M10,14 L10,10.4934269 C10,6.90817171 12.9101491,4 16.5,4 C20.0825462,4 23,6.90720623 23,10.4934269 L23,14 L22,14 L22,10.5090731 C22,7.46649603 19.5313853,5 16.5,5 C13.4624339,5 11,7.46140289 11,10.5090731 L11,14 L10,14 L10,14 Z M12,14 L12,10.5008537 C12,8.0092478 14.0147186,6 16.5,6 C18.9802243,6 21,8.01510082 21,10.5008537 L21,14 L12,14 L12,14 L12,14 Z" id="combination-lock" sketch:type="MSShapeGroup"></path>
        </g>
    </g>
</svg>

<svg width="32" height="32" viewBox="0 0 32 32" xmlns="http://www.w3.org/2000/svg"><path d="M26 26v-2h-9v-1h9v-2h-9v-1h9v-2h-9v-1h9a2 2 0 0 0-1.997-2H8.997A2.001 2.001 0 0 0 7 17.006v9.988A2 2 0 0 0 8.997 29h15.006A2.001 2.001 0 0 0 26 27h-9v-1h9zM9 14v-3.5a7.5 7.5 0 1 1 15 0V14c1.66.005 3 1.35 3 3.01v9.98A3.002 3.002 0 0 1 23.991 30H9.01A3.008 3.008 0 0 1 6 26.99v-9.98A3.002 3.002 0 0 1 9 14zm1 0v-3.507A6.497 6.497 0 0 1 16.5 4c3.583 0 6.5 2.907 6.5 6.493V14h-1v-3.49A5.509 5.509 0 0 0 16.5 5a5.501 5.501 0 0 0-5.5 5.51V14h-1zm2 0v-3.5C12 8.01 14.015 6 16.5 6c2.48 0 4.5 2.015 4.5 4.5V14h-9z" fill="#929292" fill-rule="evenodd"/></svg>
